X: 52
T: Aaron`s
T: Aaaron`s Key
R:jig
S:Guido
M:6/8
K:B minor
F2 B Bcd |c2 A ABc |d2 B Bcd |edc BAG |F2 B Bcd |c2 A ABc |
dcd ede |fdB BAG |F2 B Bcd |c2 A ABc |d2 B Bcd  |efd efg|
fff fed | c2 A ABc | dcd ede | fdB B2 c :|
ddd def |ecA a2 g |fff fed |cec ABc|BAB cBc |dcd ede|
|fed cBA |BBB B2 c |ddd def |ecA a2 g |fff fed |cec ABc | 
BAB cBc |dcd ede |fed cBA | BBB BAG ||
